cssgg/toolbox.svg

<svg
  width="24"
  height="24"
  viewBox="0 0 24 24"
  fill="none"
  xmlns="http://www.w3.org/2000/svg"
>
  <path
    fill-rule="evenodd"
    clip-rule="evenodd"
    d="M17 5.5H20C21.1046 5.5 22 6.39543 22 7.5V19.5C22 20.6046 21.1046 21.5 20 21.5H4C2.89543 21.5 2 20.6046 2 19.5V7.5C2 6.39543 2.89543 5.5 4 5.5H7C7 3.84315 8.34315 2.5 10 2.5H14C15.6569 2.5 17 3.84315 17 5.5ZM14 4.5H10C9.44772 4.5 9 4.94772 9 5.5H15C15 4.94772 14.5523 4.5 14 4.5ZM20 7.5H4V9.5H20V7.5ZM4 19.5V11.5H7V13.5H11V11.5H13V13.5H17V11.5H20V19.5H4Z"
    fill="currentColor"
  />
</svg>

<svg viewBox="0 0 24 24" xmlns="http://www.w3.org/2000/svg"><path fill-rule="evenodd" d="M17 5.5h3c1.1 0 2 .89 2 2v12c0 1.1-.9 2-2 2H4c-1.11 0-2-.9-2-2v-12c0-1.11.89-2 2-2h3c0-1.66 1.34-3 3-3h4c1.65 0 3 1.34 3 3Zm-3-1h-4c-.56 0-1 .44-1 1h6c0-.56-.45-1-1-1Zm6 3H4v2h16v-2Zm-16 12v-8h3v2h4v-2h2v2h4v-2h3v8H4Z"/></svg>
